public/img/ui/balalaika.svg

<svg width="205" height="174" viewBox="0 0 205 174" fill="none" xmlns="http://www.w3.org/2000/svg">
<g id="balalaika" clip-path="url(#clip0_242_4736)">
<path id="Vector" d="M101.808 68.2559L9.17578 72.6719C11.9358 79.7199 71.1678 171.024 73.4158 171.432C75.6638 171.84 106.856 81.5199 107.528 78.9039C108.2 76.2879 101.808 68.2559 101.808 68.2559ZM75.7758 100.352C72.2158 100.352 69.3358 97.4639 69.3358 93.9119C69.3358 90.3599 72.2238 87.4719 75.7758 87.4719C79.3278 87.4719 82.2158 90.3599 82.2158 93.9119C82.2158 97.4639 79.3278 100.352 75.7758 100.352Z" fill="#F9322C"/>
<path id="Vector_2" d="M168.168 22.144L175.496 33C175.496 33 178.456 31.216 181.112 33.56C188.104 32.744 202.048 24.192 202.92 23.848C203.792 23.504 201.8 16.712 198.224 12.776C194.648 8.83997 191.992 2.58397 190.464 3.33597C188.936 4.08797 170.856 17.528 170.856 17.528L168.176 22.136L168.168 22.144Z" fill="#F9322C"/>
<path id="Vector_3" d="M71.184 173.36C70.264 173.36 68.8 172.04 58.688 157.624C52.624 148.976 44.312 136.792 35.28 123.296C19.232 99.3119 1.464 72.0319 0.152003 68.7039C-0.263997 67.6559 0.296003 67.1439 0.552003 66.9759C0.752003 66.8479 0.984003 66.7759 1.216 66.7759H99.664C100.072 66.7759 100.448 66.9839 100.672 67.3279L107.008 77.1359C107.208 77.4479 107.256 77.8319 107.136 78.1759C107.056 78.4079 98.968 101.944 90.688 125.216C73.704 172.96 72.568 173.152 71.472 173.336C71.376 173.352 71.28 173.368 71.184 173.368V173.36ZM3.072 69.1759C6.312 74.9279 20.016 96.1359 35.944 119.976C53.912 146.872 67.528 166.4 71.064 170.392C74.984 162.912 92.88 112.264 104.672 77.9359L99.008 69.1679H3.072V69.1759Z" fill="#F4F4F5"/>
<path id="Vector_4" d="M106 78.976C105.92 78.976 105.84 78.976 105.76 78.952C105.44 78.888 105.168 78.696 104.992 78.424L98.6565 68.616C98.2965 68.056 98.4565 67.32 99.0085 66.96C99.6325 66.56 161.04 26.712 166.136 22.376C170.504 18.648 169.96 16.312 169.952 16.288C169.784 15.816 169.944 15.344 170.32 15.016C175.544 10.592 187.96 0.296 190.776 0.488C194.28 0.696 204.584 16 204.768 17.808C204.96 19.688 203.216 22.256 202.872 22.76C202.744 22.936 202.568 23.08 202.368 23.168L180.92 32.512C180.632 32.632 180.312 32.648 180.024 32.536C179.872 32.48 176.112 31.216 171.24 34.736C165.776 38.688 107.256 78.376 106.664 78.776C106.464 78.912 106.232 78.984 105.992 78.984L106 78.976ZM101.328 68.328L106.344 76.096C114.192 70.768 164.808 36.432 169.848 32.792C174.784 29.224 178.968 29.8 180.376 30.144L201.112 21.112C201.792 20.08 202.432 18.736 202.4 18.104C201.784 16.12 192.848 3.648 190.648 2.904C188.856 3.24 180.112 9.928 172.392 16.432C172.448 17.808 171.904 20.632 167.704 24.208C162.8 28.392 109.64 62.944 101.328 68.328Z" fill="#F4F4F5"/>
<path id="Vector_5" d="M173.24 15.36C173.12 15.36 172.992 15.344 172.872 15.304C171.496 14.864 168.248 13.656 167.696 11.92C167.504 11.312 167.608 10.688 168 10.168C168.888 8.98398 170.664 8.42398 172.312 8.80798C174.152 9.23998 175.424 10.696 175.808 12.8C175.928 13.448 175.496 14.08 174.84 14.2C174.704 14.224 174.56 14.224 174.432 14.2C174.432 14.312 174.408 14.416 174.376 14.528C174.216 15.04 173.744 15.36 173.232 15.36H173.24ZM170.176 11.384C170.704 11.832 172.048 12.496 173.392 12.952C173.144 11.96 172.584 11.344 171.768 11.152C171.152 11.008 170.544 11.152 170.176 11.384Z" fill="#F4F4F5"/>
<path id="Vector_6" d="M178.304 10.296C178.184 10.296 178.056 10.28 177.936 10.24C176.56 9.80002 173.304 8.59202 172.76 6.85602C172.568 6.24802 172.672 5.62402 173.064 5.10402C173.952 3.92002 175.728 3.36002 177.376 3.74402C179.216 4.17602 180.488 5.63202 180.872 7.73602C180.992 8.38402 180.56 9.01602 179.904 9.13602C179.768 9.16002 179.624 9.16002 179.496 9.13602C179.496 9.24802 179.472 9.35202 179.44 9.46402C179.28 9.97602 178.808 10.296 178.296 10.296H178.304ZM175.24 6.32002C175.768 6.76802 177.12 7.43202 178.456 7.88802C178.208 6.89602 177.648 6.28002 176.832 6.08802C176.224 5.94402 175.608 6.08802 175.24 6.32002Z" fill="#F4F4F5"/>
<path id="Vector_7" d="M183.776 6.67199C183.656 6.67199 183.528 6.65599 183.408 6.61599C182.032 6.17599 178.784 4.96799 178.232 3.23199C178.04 2.62399 178.144 1.99999 178.536 1.47999C179.424 0.295995 181.2 -0.264005 182.848 0.119995C184.688 0.551995 185.96 2.00799 186.344 4.11199C186.464 4.75999 186.032 5.39199 185.376 5.51199C185.24 5.53599 185.096 5.53599 184.968 5.51199C184.968 5.62399 184.944 5.72799 184.912 5.83999C184.752 6.35199 184.28 6.67199 183.768 6.67199H183.776ZM180.712 2.69599C181.24 3.14399 182.584 3.80799 183.928 4.26399C183.68 3.27199 183.12 2.65599 182.304 2.46399C181.688 2.31999 181.08 2.46399 180.712 2.69599Z" fill="#F4F4F5"/>
<path id="Vector_8" d="M35.5275 116.008C35.0875 116.008 34.7275 115.648 34.7275 115.208C34.7275 114.872 37.0449 113.125 41.6795 109.968C45.8795 107.104 51.8875 103.04 59.0955 98.1759C71.8475 89.5679 89.6235 77.5999 111.944 62.5999C150.384 36.7599 188.816 10.9839 188.816 10.9839C189.184 10.7359 189.68 10.8319 189.928 11.1999C190.176 11.5679 190.08 12.0639 189.712 12.3119C137.624 47.2399 38.7755 113.624 36.1035 115.76C35.9595 115.912 35.7515 116 35.5275 116V116.008Z" fill="#F4F4F5"/>
<path id="Vector_9" d="M37.2082 118.728C36.7682 118.728 36.4082 118.368 36.4082 117.928C36.4082 117.539 44.1975 112.043 59.7762 101.44C71.9922 93.1199 89.0322 81.5519 110.408 67.0559C147.232 42.0959 184.056 17.1919 184.056 17.1919C184.424 16.9439 184.92 17.0399 185.168 17.4079C185.416 17.7759 185.32 18.2719 184.952 18.5199C135.072 52.2559 40.3922 116.368 37.7842 118.488C37.6402 118.64 37.4322 118.736 37.2082 118.736V118.728Z" fill="#F4F4F5"/>
<path id="Vector_10" d="M38.8645 121.28C38.4245 121.28 38.0645 120.92 38.0645 120.48C38.0645 120.091 45.4351 114.861 60.1765 104.792C71.7285 96.8962 87.8405 85.9282 108.056 72.1842C142.88 48.5122 177.704 24.8882 177.704 24.8882C178.072 24.6402 178.568 24.7362 178.816 25.1042C179.064 25.4722 178.968 25.9682 178.6 26.2162C131.464 58.1842 41.9925 118.96 39.4405 121.032C39.2965 121.184 39.0885 121.28 38.8565 121.28H38.8645Z" fill="#F4F4F5"/>
<path id="Vector_11" d="M75.4398 98.5441C71.6638 98.5441 68.5918 95.4721 68.5918 91.6961C68.5918 87.9201 71.6638 84.8481 75.4398 84.8481C79.2158 84.8481 82.2878 87.9201 82.2878 91.6961C82.2878 95.4721 79.2158 98.5441 75.4398 98.5441ZM75.4398 86.4401C72.5438 86.4401 70.1918 88.7921 70.1918 91.6881C70.1918 94.5841 72.5438 96.9361 75.4398 96.9361C78.3358 96.9361 80.6878 94.5841 80.6878 91.6881C80.6878 88.7921 78.3358 86.4401 75.4398 86.4401Z" fill="#F4F4F5"/>
<path id="Vector_12" d="M50.9279 125.656C50.9279 125.656 50.8559 125.656 50.8239 125.656C50.6079 125.624 50.4079 125.512 50.2799 125.328L34.8799 103.96C34.6239 103.608 34.6959 103.12 35.0399 102.856L37.6479 100.864C37.8239 100.728 38.0479 100.672 38.2639 100.712C38.4799 100.744 38.6719 100.872 38.7999 101.048L53.6559 122.728C53.8879 123.072 53.8239 123.536 53.5039 123.8L51.4399 125.488C51.2959 125.608 51.1199 125.664 50.9359 125.664L50.9279 125.656ZM36.6319 103.648L51.0799 123.696L51.9199 123.016L37.9519 102.64L36.6319 103.648Z" fill="#F4F4F5"/>
<path id="Vector_13" d="M62.9525 109.8C62.6885 109.8 62.4485 109.672 62.2965 109.456L53.7205 97.12C53.4725 96.768 53.5525 96.28 53.8965 96.024L55.4245 94.872C55.6005 94.736 55.8245 94.688 56.0405 94.72C56.2565 94.76 56.4485 94.88 56.5685 95.064L64.5365 106.856C64.7045 107.104 64.7205 107.424 64.5765 107.688L63.6565 109.376C63.5205 109.616 63.2725 109.776 63.0005 109.792C62.9845 109.792 62.9685 109.792 62.9605 109.792L62.9525 109.8ZM55.4725 96.848L62.8725 107.488L62.9365 107.368L55.7125 96.672L55.4725 96.856V96.848Z" fill="#F4F4F5"/>
<path id="Vector_14" d="M190.224 12.8159C189.136 12.8159 188.256 11.9359 188.256 10.8479C188.256 9.75988 189.136 8.87988 190.224 8.87988C191.312 8.87988 192.192 9.75988 192.192 10.8479C192.192 11.9359 191.312 12.8159 190.224 12.8159ZM190.224 10.4799C190.024 10.4799 189.856 10.6479 189.856 10.8479C189.856 11.0479 190.024 11.2159 190.224 11.2159C190.424 11.2159 190.592 11.0479 190.592 10.8479C190.592 10.6479 190.424 10.4799 190.224 10.4799Z" fill="#F4F4F5"/>
<path id="Vector_15" d="M185.68 19.4961C184.592 19.4961 183.712 18.6161 183.712 17.5281C183.712 16.4401 184.592 15.5601 185.68 15.5601C186.768 15.5601 187.648 16.4401 187.648 17.5281C187.648 18.6161 186.768 19.4961 185.68 19.4961ZM185.68 17.1601C185.48 17.1601 185.312 17.3281 185.312 17.5281C185.312 17.7281 185.48 17.8961 185.68 17.8961C185.88 17.8961 186.048 17.7281 186.048 17.5281C186.048 17.3281 185.88 17.1601 185.68 17.1601Z" fill="#F4F4F5"/>
<path id="Vector_16" d="M179.696 26.976C178.608 26.976 177.728 26.096 177.728 25.008C177.728 23.92 178.608 23.04 179.696 23.04C180.784 23.04 181.664 23.92 181.664 25.008C181.664 26.096 180.784 26.976 179.696 26.976ZM179.696 24.64C179.496 24.64 179.328 24.808 179.328 25.008C179.328 25.208 179.496 25.376 179.696 25.376C179.896 25.376 180.064 25.208 180.064 25.008C180.064 24.808 179.896 24.64 179.696 24.64Z" fill="#F4F4F5"/>
<path id="Vector_17" d="M71.1204 148.048C70.9524 148.048 70.7844 147.992 70.6404 147.888L65.2244 143.8C64.8724 143.536 64.8004 143.032 65.0644 142.68C65.3284 142.328 65.8324 142.256 66.1844 142.52L71.6004 146.608C71.9524 146.872 72.0244 147.376 71.7604 147.728C71.6004 147.936 71.3604 148.048 71.1204 148.048Z" fill="#F4F4F5"/>
<path id="Vector_18" d="M74.4956 143C74.3276 143 74.1596 142.944 74.0156 142.84L71.6316 141.04C71.2796 140.776 71.2076 140.272 71.4716 139.92C71.7356 139.568 72.2396 139.496 72.5916 139.76L74.9756 141.56C75.3276 141.824 75.3996 142.328 75.1356 142.68C74.9756 142.888 74.7356 143 74.4956 143Z" fill="#F4F4F5"/>
<path id="Vector_19" d="M75.7756 76.2561C75.5916 76.2561 75.3996 76.1921 75.2476 76.0561C74.9116 75.7681 74.8796 75.2641 75.1676 74.9281L79.0876 70.4321C79.3836 70.0961 79.8876 70.0641 80.2156 70.3521C80.5516 70.6401 80.5836 71.1441 80.2956 71.4801L76.3756 75.9761C76.2156 76.1601 75.9916 76.2481 75.7756 76.2481V76.2561Z" fill="#F4F4F5"/>
<path id="Vector_20" d="M82.2156 73.8158C82.0796 73.8158 81.9516 73.7838 81.8236 73.7118C81.4396 73.4958 81.3036 73.0078 81.5196 72.6238L82.6716 70.5678C82.8876 70.1838 83.3756 70.0478 83.7596 70.2638C84.1436 70.4798 84.2796 70.9678 84.0636 71.3518L82.9116 73.4078C82.7676 73.6718 82.4956 73.8158 82.2156 73.8158Z" fill="#F4F4F5"/>
</g>
<defs>
<clipPath id="clip0_242_4736">
<rect width="204.792" height="173.344" fill="white"/>
</clipPath>
</defs>
</svg>

<svg fill="none" height="174" viewBox="0 0 205 174" width="205" xmlns="http://www.w3.org/2000/svg" xmlns:xlink="http://www.w3.org/1999/xlink"><clipPath id="a"><path d="m0 0h204.792v173.344h-204.792z"/></clipPath><g clip-path="url(#a)"><path d="m101.808 68.2559-92.63222 4.416c2.76002 7.048 61.99202 98.3521 64.24002 98.7601s33.4402-89.9121 34.1122-92.5281-5.72-10.648-5.72-10.648zm-26.0322 32.0961c-3.56 0-6.44-2.8881-6.44-6.4401s2.888-6.44 6.44-6.44 6.44 2.888 6.44 6.44-2.888 6.4401-6.44 6.4401z" fill="#f9322c"/><path d="m168.168 22.144 7.328 10.856s2.96-1.784 5.616.56c6.992-.816 20.936-9.368 21.808-9.712s-1.12-7.136-4.696-11.072c-3.576-3.93603-6.232-10.19203-7.76-9.44003s-19.608 14.19203-19.608 14.19203l-2.68 4.608z" fill="#f9322c"/><g fill="#f4f4f5"><path d="m71.184 173.36c-.92 0-2.384-1.32-12.496-15.736-6.064-8.648-14.376-20.832-23.408-34.328-16.048-23.9841-33.816-51.2641-35.127997-54.5921-.416-1.048.144-1.56.4-1.728.2-.128.432-.2.663997-.2h98.448c.408 0 .784.208 1.008.552l6.336 9.808c.2.312.248.696.128 1.04-.08.232-8.168 23.7681-16.448 47.0401-16.984 47.744-18.12 47.936-19.216 48.12-.096.016-.192.032-.288.032zm-68.112-104.1841c3.24 5.752 16.944 26.96 32.872 50.8001 17.968 26.896 31.584 46.424 35.12 50.416 3.92-7.48 21.816-58.128 33.608-92.4561l-5.664-8.768h-95.936z"/><path d="m106 78.976c-.08 0-.16 0-.24-.024-.32-.064-.592-.256-.768-.528l-6.3355-9.808c-.36-.56-.2-1.296.352-1.656.624-.4 62.0315-40.248 67.1275-44.584 4.368-3.728 3.824-6.064 3.816-6.088-.168-.472-.008-.944.368-1.272 5.224-4.424 17.64-14.72 20.456-14.528 3.504.208 13.808 15.512 13.992 17.32.192 1.88-1.552 4.448-1.896 4.952-.128.176-.304.32-.504.408l-21.448 9.344c-.288.12-.608.136-.896.024-.152-.056-3.912-1.32-8.784 2.2-5.464 3.952-63.984 43.64-64.576 44.04-.2.136-.432.208-.672.208zm-4.672-10.648 5.016 7.768c7.848-5.328 58.464-39.664 63.504-43.304 4.936-3.568 9.12-2.992 10.528-2.648l20.736-9.032c.68-1.032 1.32-2.376 1.288-3.008-.616-1.984-9.552-14.456-11.752-15.2-1.792.336-10.536 7.024-18.256 13.528.056 1.376-.488 4.2-4.688 7.776-4.904 4.184-58.064 38.736-66.376 44.12z"/><path d="m173.24 15.36c-.12 0-.248-.016-.368-.056-1.376-.44-4.624-1.648-5.176-3.384-.192-.608-.088-1.232.304-1.752.888-1.18402 2.664-1.74402 4.312-1.36002 1.84.432 3.112 1.88802 3.496 3.99202.12.648-.312 1.28-.968 1.4-.136.024-.28.024-.408 0 0 .112-.024.216-.056.328-.16.512-.632.832-1.144.832zm-3.064-3.976c.528.448 1.872 1.112 3.216 1.568-.248-.992-.808-1.608-1.624-1.8-.616-.144-1.224 0-1.592.232z"/><path d="m178.304 10.296c-.12 0-.248-.016-.368-.056-1.376-.43998-4.632-1.64798-5.176-3.38398-.192-.608-.088-1.232.304-1.752.888-1.184 2.664-1.744 4.312-1.36 1.84.432 3.112 1.888 3.496 3.992.12.648-.312 1.28-.968 1.4-.136.024-.28.024-.408 0 0 .112-.024.216-.056.328-.16.512-.632.83198-1.144.83198zm-3.064-3.97598c.528.448 1.88 1.112 3.216 1.568-.248-.992-.808-1.608-1.624-1.8-.608-.144-1.224 0-1.592.232z"/><path d="m183.776 6.67199c-.12 0-.248-.016-.368-.056-1.376-.44-4.624-1.648-5.176-3.384-.192-.608-.088-1.232.304-1.752.888-1.183995 2.664-1.743995 4.312-1.359995 1.84.432 3.112 1.887995 3.496 3.991995.12.648-.312 1.28-.968 1.4-.136.024-.28.024-.408 0 0 .112-.024.216-.056.328-.16.512-.632.832-1.144.832zm-3.064-3.976c.528.448 1.872 1.112 3.216 1.568-.248-.992-.808-1.608-1.624-1.8-.616-.144-1.224 0-1.592.232z"/><path d="m35.5275 116.008c-.44 0-.8-.36-.8-.8 0-.336 2.3174-2.083 6.952-5.24 4.2-2.864 10.208-6.928 17.416-11.7921 12.752-8.608 30.528-20.576 52.8485-35.576 38.44-25.84 76.872-51.616 76.872-51.616.368-.248.864-.152 1.112.216s.152.864-.216 1.112c-52.088 34.928-150.9365 101.3121-153.6085 103.4481-.144.152-.352.24-.576.24z"/><path d="m37.2082 118.728c-.44 0-.8-.36-.8-.8 0-.389 7.7893-5.885 23.368-16.488 12.216-8.3201 29.256-19.8881 50.6318-34.3841 36.824-24.96 73.648-49.864 73.648-49.864.368-.248.864-.152 1.112.216s.152.864-.216 1.112c-49.88 33.736-144.5598 97.8481-147.1678 99.9681-.144.152-.352.248-.576.248z"/><path d="m38.8645 121.28c-.44 0-.8-.36-.8-.8 0-.389 7.3706-5.619 22.112-15.688 11.552-7.8958 27.664-18.8638 47.8795-32.6078 34.824-23.672 69.648-47.296 69.648-47.296.368-.248.864-.152 1.112.216s.152.864-.216 1.112c-47.136 31.968-136.6075 92.7438-139.1595 94.8158-.144.152-.352.248-.584.248z"/><path d="m75.4398 98.5441c-3.776 0-6.848-3.072-6.848-6.848s3.072-6.848 6.848-6.848 6.848 3.072 6.848 6.848-3.072 6.848-6.848 6.848zm0-12.104c-2.896 0-5.248 2.352-5.248 5.248s2.352 5.248 5.248 5.248 5.248-2.352 5.248-5.248-2.352-5.248-5.248-5.248z"/><path d="m50.9279 125.656s-.072 0-.104 0c-.216-.032-.416-.144-.544-.328l-15.4-21.368c-.256-.352-.184-.84.16-1.104l2.608-1.992c.176-.136.4-.192.616-.152.216.032.408.16.536.336l14.856 21.68c.232.344.168.808-.152 1.072l-2.064 1.688c-.144.12-.32.176-.504.176zm-14.296-22.008 14.448 20.048.84-.68-13.968-20.376z"/><path d="m62.9525 109.8c-.264 0-.504-.128-.656-.344l-8.576-12.336c-.248-.352-.168-.84.176-1.096l1.528-1.152c.176-.136.4-.184.616-.152.216.04.408.16.528.344l7.968 11.792c.168.248.184.568.04.832l-.92 1.688c-.136.24-.384.4-.656.416-.016 0-.032 0-.04 0zm-7.48-12.952 7.4 10.64.064-.12-7.224-10.696-.24.184z"/><path d="m190.224 12.8159c-1.088 0-1.968-.88-1.968-1.968 0-1.08802.88-1.96802 1.968-1.96802s1.968.88 1.968 1.96802c0 1.088-.88 1.968-1.968 1.968zm0-2.336c-.2 0-.368.168-.368.368s.168.368.368.368.368-.168.368-.368-.168-.368-.368-.368z"/><path d="m185.68 19.4961c-1.088 0-1.968-.88-1.968-1.968s.88-1.968 1.968-1.968 1.968.88 1.968 1.968-.88 1.968-1.968 1.968zm0-2.336c-.2 0-.368.168-.368.368s.168.368.368.368.368-.168.368-.368-.168-.368-.368-.368z"/><path d="m179.696 26.976c-1.088 0-1.968-.88-1.968-1.968s.88-1.968 1.968-1.968 1.968.88 1.968 1.968-.88 1.968-1.968 1.968zm0-2.336c-.2 0-.368.168-.368.368s.168.368.368.368.368-.168.368-.368-.168-.368-.368-.368z"/><path d="m71.1204 148.048c-.168 0-.336-.056-.48-.16l-5.416-4.088c-.352-.264-.424-.768-.16-1.12s.768-.424 1.12-.16l5.416 4.088c.352.264.424.768.16 1.12-.16.208-.4.32-.64.32z"/><path d="m74.4956 143c-.168 0-.336-.056-.48-.16l-2.384-1.8c-.352-.264-.424-.768-.16-1.12s.768-.424 1.12-.16l2.384 1.8c.352.264.424.768.16 1.12-.16.208-.4.32-.64.32z"/><path d="m75.7756 76.2561c-.184 0-.376-.064-.528-.2-.336-.288-.368-.792-.08-1.128l3.92-4.496c.296-.336.8-.368 1.128-.08.336.288.368.792.08 1.128l-3.92 4.496c-.16.184-.384.272-.6.272z"/><path d="m82.2156 73.8158c-.136 0-.264-.032-.392-.104-.384-.216-.52-.704-.304-1.088l1.152-2.056c.216-.384.704-.52 1.088-.304s.52.704.304 1.088l-1.152 2.056c-.144.264-.416.408-.696.408z"/></g></g></svg>
